X: 27170
T: Miss McPherson's
R: reel
M: 4/4
K: Amajor
D|C2 A,C ECAE|CA,EC DB,B,D|C2 A,C ECAE|dBcG AA,A,:|
d|cdec fdec|dBcA dBBd|cdec fdec|fgae cAAd|
cdec fdec|dBcA dBBc|CA,EC FDAF|EC dB cAA||

